src/assets/cards/platform/Сhronos.svg

<?xml version="1.0" encoding="UTF-8"?>
<!DOCTYPE svg PUBLIC "-//W3C//DTD SVG 1.1//EN" "http://www.w3.org/Graphics/SVG/1.1/DTD/svg11.dtd">
<svg xmlns="http://www.w3.org/2000/svg" version="1.1" width="160px" height="160px" style="shape-rendering:geometricPrecision; text-rendering:geometricPrecision; image-rendering:optimizeQuality; fill-rule:evenodd; clip-rule:evenodd" xmlns:xlink="http://www.w3.org/1999/xlink">
<g><path style="opacity:0.98" fill="#855ff1" d="M 60.5,-0.5 C 71.8333,-0.5 83.1667,-0.5 94.5,-0.5C 129.127,8.12735 150.794,29.794 159.5,64.5C 159.5,73.8333 159.5,83.1667 159.5,92.5C 158.655,93.6715 157.989,95.0048 157.5,96.5C 155.146,96.162 152.813,95.662 150.5,95C 147.703,91.2012 144.536,87.7012 141,84.5C 140.399,78.1597 139.733,71.8264 139,65.5C 138.722,64.5842 138.222,63.9175 137.5,63.5C 126.173,32.3234 103.84,17.3234 70.5,18.5C 69.708,16.7428 68.3747,15.4095 66.5,14.5C 65.6906,12.9291 65.3573,11.2624 65.5,9.5C 64.1266,9.65668 62.7932,9.49001 61.5,9C 58.7121,7.28142 56.3788,5.11476 54.5,2.5C 56.5739,1.48615 58.5739,0.486147 60.5,-0.5 Z"/></g>
<g><path style="opacity:0.987" fill="#6e64f1" d="M 54.5,2.5 C 56.3788,5.11476 58.7121,7.28142 61.5,9C 62.7932,9.49001 64.1266,9.65668 65.5,9.5C 65.3573,11.2624 65.6906,12.9291 66.5,14.5C 68.3747,15.4095 69.708,16.7428 70.5,18.5C 51.6547,22.921 36.9881,33.2543 26.5,49.5C 26.5,48.1667 26.5,46.8333 26.5,45.5C 25.5,45.5 24.5,45.5 23.5,45.5C 23.5,43.8333 23.5,42.1667 23.5,40.5C 21.1432,40.6633 18.8098,40.4966 16.5,40C 15.7734,38.6012 15.2734,37.1012 15,35.5C 14.3292,34.7476 13.4959,34.4142 12.5,34.5C 22.1395,18.2038 36.1395,7.53713 54.5,2.5 Z"/></g>
<g><path style="opacity:0.989" fill="#5868f2" d="M 12.5,34.5 C 13.4959,34.4142 14.3292,34.7476 15,35.5C 15.2734,37.1012 15.7734,38.6012 16.5,40C 18.8098,40.4966 21.1432,40.6633 23.5,40.5C 23.5,42.1667 23.5,43.8333 23.5,45.5C 24.5,45.5 25.5,45.5 26.5,45.5C 26.5,46.8333 26.5,48.1667 26.5,49.5C 22.13,57.6112 19.7967,66.2779 19.5,75.5C 18.0696,79.6902 16.9029,84.0236 16,88.5C 13.259,86.9326 12.0923,84.5993 12.5,81.5C 10.5,81.1667 8.5,80.8333 6.5,80.5C 6.5,79.5 6.5,78.5 6.5,77.5C 4.16667,77.5 1.83333,77.5 -0.5,77.5C -0.5,71.8333 -0.5,66.1667 -0.5,60.5C 1.20199,55.5712 3.03532,50.5712 5,45.5C 6.58184,41.106 9.08184,37.4393 12.5,34.5 Z"/></g>
<g><path style="opacity:1" fill="#e9e7f8" d="M 70.5,18.5 C 103.84,17.3234 126.173,32.3234 137.5,63.5C 140.76,83.2098 136.76,101.21 125.5,117.5C 114.453,129.524 100.786,136.524 84.5,138.5C 51.6543,139.139 30.4876,123.806 21,92.5C 19.8686,86.888 19.3686,81.2213 19.5,75.5C 19.7967,66.2779 22.13,57.6112 26.5,49.5C 36.9881,33.2543 51.6547,22.921 70.5,18.5 Z"/></g>
<g><path style="opacity:0.999" fill="#7d66ef" d="M 109.5,89.5 C 106.482,89.6646 103.482,89.498 100.5,89C 110.08,84.9734 113.58,77.8067 111,67.5C 105.334,58.5728 97.5008,56.0728 87.5,60C 85.2852,62.4196 83.2852,64.2529 81.5,65.5C 82.5637,56.9219 87.2303,51.0886 95.5,48C 115.557,45.7257 124.724,54.559 123,74.5C 120.71,81.6173 116.21,86.6173 109.5,89.5 Z"/></g>
<g><path style="opacity:0.99" fill="#7565ef" d="M 67.5,58.5 C 64.8122,59.0241 63.3122,60.6908 63,63.5C 56.5,55.6667 49.3333,48.5 41.5,42C 43.1554,40.5557 43.822,38.7224 43.5,36.5C 60.2203,22.8842 78.8869,19.7176 99.5,27C 108.8,31.6296 116.967,37.7963 124,45.5C 125.187,47.0444 125.52,48.7111 125,50.5C 115.379,42.2346 104.212,39.4013 91.5,42C 81.7115,44.9643 73.7115,50.4643 67.5,58.5 Z"/></g>
<g><path style="opacity:0.998" fill="#6d6aee" d="M 77.5,70.5 C 78.4046,79.4693 82.7379,86.3026 90.5,91C 88.8659,91.4935 87.1992,91.6602 85.5,91.5C 79.7876,91.687 74.1209,91.3537 68.5,90.5C 64.3563,75.8315 67.6896,63.3315 78.5,53C 80.569,51.1256 82.9023,50.1256 85.5,50C 79.3775,55.8037 76.7108,62.637 77.5,70.5 Z"/></g>
<g><path style="opacity:0.984" fill="#f1f0f9" d="M 109.5,89.5 C 111.415,89.2155 113.081,89.5489 114.5,90.5C 113.957,90.56 113.624,90.8933 113.5,91.5C 115.167,91.8333 116.833,92.1667 118.5,92.5C 123.149,91.8722 127.816,91.5389 132.5,91.5C 134.028,91.5173 134.528,92.184 134,93.5C 132.729,94.8825 131.229,95.8825 129.5,96.5C 120.663,95.7138 111.997,95.7138 103.5,96.5C 102.521,99.6248 102.187,102.958 102.5,106.5C 101.152,109.827 100.485,113.161 100.5,116.5C 85.1738,116.682 74.1738,110.015 67.5,96.5C 67.5,95.5 67.5,94.5 67.5,93.5C 69.4832,93.1568 70.8166,93.8235 71.5,95.5C 71.2627,96.791 71.596,97.791 72.5,98.5C 78.1522,106.492 85.8189,111.159 95.5,112.5C 96.5676,113.434 97.901,113.768 99.5,113.5C 99.5,107.5 99.5,101.5 99.5,95.5C 95.5,95.5 91.5,95.5 87.5,95.5C 82.6835,94.6739 77.6835,94.1739 72.5,94C 76.9058,92.9589 81.2391,92.1256 85.5,91.5C 87.1992,91.6602 88.8659,91.4935 90.5,91C 82.7379,86.3026 78.4046,79.4693 77.5,70.5C 77.9113,67.3376 78.7447,64.3376 80,61.5C 80.21,63.0581 80.71,64.3915 81.5,65.5C 83.2852,64.2529 85.2852,62.4196 87.5,60C 97.5008,56.0728 105.334,58.5728 111,67.5C 113.58,77.8067 110.08,84.9734 100.5,89C 103.482,89.498 106.482,89.6646 109.5,89.5 Z"/></g>
<g><path style="opacity:0.997" fill="#806aed" d="M 132.5,91.5 C 127.816,91.5389 123.149,91.8722 118.5,92.5C 116.833,92.1667 115.167,91.8333 113.5,91.5C 113.624,90.8933 113.957,90.56 114.5,90.5C 126.519,82.4644 130.685,71.4644 127,57.5C 134.775,67.8025 136.608,79.1358 132.5,91.5 Z"/></g>
<g><path style="opacity:0.99" fill="#6067f1" d="M 43.5,36.5 C 43.822,38.7224 43.1554,40.5557 41.5,42C 49.3333,48.5 56.5,55.6667 63,63.5C 63.3122,60.6908 64.8122,59.0241 67.5,58.5C 63.8528,67.4847 62.6862,76.818 64,86.5C 64.5717,90.1632 65.7383,93.4965 67.5,96.5C 74.1738,110.015 85.1738,116.682 100.5,116.5C 105.638,116.566 110.638,115.9 115.5,114.5C 117.19,114.856 118.19,115.856 118.5,117.5C 112.038,124.734 104.038,129.4 94.5,131.5C 89.7668,131.777 85.1001,131.443 80.5,130.5C 72.6627,124.161 65.3294,117.328 58.5,110C 57.2068,109.51 55.8734,109.343 54.5,109.5C 54.762,108.022 54.4287,106.689 53.5,105.5C 50.3416,103.76 48.0083,101.26 46.5,98C 41.8274,97.0657 41.4941,95.5657 45.5,93.5C 38.1727,86.8394 31.1727,79.8394 24.5,72.5C 25.0479,57.4024 31.3812,45.4024 43.5,36.5 Z"/></g>
<g><path style="opacity:1" fill="#7b6cee" d="M 96.5,65.5 C 106.113,65.2492 109.113,69.4158 105.5,78C 99.0193,81.2878 95.3526,79.4545 94.5,72.5C 94.4413,69.8906 95.108,67.5572 96.5,65.5 Z"/></g>
<g><path style="opacity:1" fill="#796eeb" d="M 97.5,82.5 C 97.6107,83.1174 97.944,83.6174 98.5,84C 96.5273,84.4955 94.5273,84.6621 92.5,84.5C 89.2678,84.2283 87.2678,82.5616 86.5,79.5C 86.5,75.5 86.5,71.5 86.5,67.5C 88.3054,63.5132 91.3054,62.0132 95.5,63C 89.136,67.3396 87.9694,72.8396 92,79.5C 93.4877,81.16 95.321,82.16 97.5,82.5 Z"/></g>
<g><path style="opacity:1" fill="#9992eb" d="M 86.5,67.5 C 86.5,71.5 86.5,75.5 86.5,79.5C 85.0277,77.8825 84.361,75.8825 84.5,73.5C 84.361,71.1175 85.0277,69.1175 86.5,67.5 Z"/></g>
<g><path style="opacity:0.995" fill="#576af1" d="M 24.5,72.5 C 31.1727,79.8394 38.1727,86.8394 45.5,93.5C 41.4941,95.5657 41.8274,97.0657 46.5,98C 48.0083,101.26 50.3416,103.76 53.5,105.5C 54.4287,106.689 54.762,108.022 54.5,109.5C 55.8734,109.343 57.2068,109.51 58.5,110C 65.3294,117.328 72.6627,124.161 80.5,130.5C 85.1001,131.443 89.7668,131.777 94.5,131.5C 63.3975,139.18 40.8975,128.513 27,99.5C 23.7081,90.5629 22.8748,81.5629 24.5,72.5 Z"/></g>
<g><path style="opacity:0.986" fill="#7264f0" d="M 137.5,63.5 C 138.222,63.9175 138.722,64.5842 139,65.5C 139.733,71.8264 140.399,78.1597 141,84.5C 144.536,87.7012 147.703,91.2012 150.5,95C 152.813,95.662 155.146,96.162 157.5,96.5C 155.338,110.83 149.004,122.83 138.5,132.5C 137.292,129.956 135.292,128.622 132.5,128.5C 132.762,127.022 132.429,125.689 131.5,124.5C 128.757,122.761 126.757,120.427 125.5,117.5C 136.76,101.21 140.76,83.2098 137.5,63.5 Z"/></g>
<g><path style="opacity:1" fill="#beb9ef" d="M 97.5,82.5 C 98.8734,82.3433 100.207,82.51 101.5,83C 102.833,83.6667 102.833,84.3333 101.5,85C 98.3035,85.8045 95.3035,85.6378 92.5,84.5C 94.5273,84.6621 96.5273,84.4955 98.5,84C 97.944,83.6174 97.6107,83.1174 97.5,82.5 Z"/></g>
<g><path style="opacity:0.976" fill="#4c6af1" d="M 19.5,75.5 C 19.3686,81.2213 19.8686,86.888 21,92.5C 30.4876,123.806 51.6543,139.139 84.5,138.5C 80.2983,139.293 75.9649,140.126 71.5,141C 74.386,143.43 77.0527,146.097 79.5,149C 81.9739,149.113 83.9739,150.113 85.5,152C 84.8333,152.667 84.1667,153.333 83.5,154C 87.2101,154.28 90.2101,155.78 92.5,158.5C 92.5,158.833 92.5,159.167 92.5,159.5C 83.5,159.5 74.5,159.5 65.5,159.5C 31.515,151.513 9.51501,130.846 -0.5,97.5C -0.5,90.8333 -0.5,84.1667 -0.5,77.5C 1.83333,77.5 4.16667,77.5 6.5,77.5C 6.5,78.5 6.5,79.5 6.5,80.5C 8.5,80.8333 10.5,81.1667 12.5,81.5C 12.0923,84.5993 13.259,86.9326 16,88.5C 16.9029,84.0236 18.0696,79.6902 19.5,75.5 Z"/></g>
<g><path style="opacity:1" fill="#b4b1f4" d="M 71.5,95.5 C 76.8333,95.5 82.1667,95.5 87.5,95.5C 91.5,95.5 95.5,95.5 99.5,95.5C 99.5,101.5 99.5,107.5 99.5,113.5C 97.901,113.768 96.5676,113.434 95.5,112.5C 96.5,112.5 97.5,112.5 98.5,112.5C 98.5,107.167 98.5,101.833 98.5,96.5C 91.4921,96.3337 84.4921,96.5004 77.5,97C 75.6183,97.1981 73.9516,97.6981 72.5,98.5C 71.596,97.791 71.2627,96.791 71.5,95.5 Z"/></g>
<g><path style="opacity:0.961" fill="#6d67f0" d="M 129.5,96.5 C 125.062,104.394 118.395,109.394 109.5,111.5C 107.735,110.539 105.735,110.205 103.5,110.5C 103.5,105.833 103.5,101.167 103.5,96.5C 111.997,95.7138 120.663,95.7138 129.5,96.5 Z"/></g>
<g><path style="opacity:1" fill="#6968ef" d="M 95.5,112.5 C 85.8189,111.159 78.1522,106.492 72.5,98.5C 73.9516,97.6981 75.6183,97.1981 77.5,97C 84.4921,96.5004 91.4921,96.3337 98.5,96.5C 98.5,101.833 98.5,107.167 98.5,112.5C 97.5,112.5 96.5,112.5 95.5,112.5 Z"/></g>
<g><path style="opacity:0.963" fill="#7e78e7" d="M 118.5,117.5 C 118.19,115.856 117.19,114.856 115.5,114.5C 118.958,111.779 122.625,109.612 126.5,108C 124.72,111.944 122.054,115.11 118.5,117.5 Z"/></g>
<g><path style="opacity:1" fill="#857fea" d="M 103.5,96.5 C 103.5,101.167 103.5,105.833 103.5,110.5C 105.735,110.205 107.735,110.539 109.5,111.5C 103.819,115.126 101.486,113.459 102.5,106.5C 102.187,102.958 102.521,99.6248 103.5,96.5 Z"/></g>
<g><path style="opacity:0.982" fill="#5c67f2" d="M 125.5,117.5 C 126.757,120.427 128.757,122.761 131.5,124.5C 132.429,125.689 132.762,127.022 132.5,128.5C 135.292,128.622 137.292,129.956 138.5,132.5C 134.685,138.48 129.685,143.314 123.5,147C 113.974,153.1 103.64,156.934 92.5,158.5C 90.2101,155.78 87.2101,154.28 83.5,154C 84.1667,153.333 84.8333,152.667 85.5,152C 83.9739,150.113 81.9739,149.113 79.5,149C 77.0527,146.097 74.386,143.43 71.5,141C 75.9649,140.126 80.2983,139.293 84.5,138.5C 100.786,136.524 114.453,129.524 125.5,117.5 Z"/></g>
</svg>

<svg xmlns="http://www.w3.org/2000/svg" width="160" height="160" style="shape-rendering:geometricPrecision;text-rendering:geometricPrecision;image-rendering:optimizeQuality;fill-rule:evenodd;clip-rule:evenodd"><path style="opacity:.98" fill="#855ff1" d="M60.5-.5h34c34.627 8.627 56.294 30.294 65 65v28c-.845 1.171-1.511 2.505-2 4a52.56 52.56 0 0 1-7-1.5 70.607 70.607 0 0 0-9.5-10.5 916.674 916.674 0 0 0-2-19c-.278-.916-.778-1.583-1.5-2-11.327-31.177-33.66-46.177-67-45-.792-1.757-2.125-3.09-4-4a9.106 9.106 0 0 1-1-5 8.434 8.434 0 0 1-4-.5 24.089 24.089 0 0 1-7-6.5 362.935 362.935 0 0 0 6-3z"/><path style="opacity:.987" fill="#6e64f1" d="M54.5 2.5a24.089 24.089 0 0 0 7 6.5 8.434 8.434 0 0 0 4 .5 9.106 9.106 0 0 0 1 5c1.875.91 3.208 2.243 4 4-18.845 4.421-33.512 14.754-44 31v-4h-3v-5a24.939 24.939 0 0 1-7-.5 15.276 15.276 0 0 1-1.5-4.5c-.67-.752-1.504-1.086-2.5-1 9.64-16.296 23.64-26.963 42-32z"/><path style="opacity:.989" fill="#5868f2" d="M12.5 34.5c.996-.086 1.83.248 2.5 1a15.276 15.276 0 0 0 1.5 4.5c2.31.497 4.643.663 7 .5v5h3v4c-4.37 8.111-6.703 16.778-7 26a103.598 103.598 0 0 0-3.5 13c-2.741-1.567-3.908-3.9-3.5-7l-6-1v-3h-7v-17a430.548 430.548 0 0 1 5.5-15c1.582-4.394 4.082-8.06 7.5-11z"/><path style="opacity:1" fill="#e9e7f8" d="M70.5 18.5c33.34-1.177 55.673 13.823 67 45 3.26 19.71-.74 37.71-12 54-11.047 12.024-24.714 19.024-41 21-32.846.639-54.012-14.694-63.5-46a76.83 76.83 0 0 1-1.5-17c.297-9.222 2.63-17.889 7-26 10.488-16.246 25.155-26.579 44-31z"/><path style="opacity:.999" fill="#7d66ef" d="M109.5 89.5a40.939 40.939 0 0 1-9-.5c9.58-4.027 13.08-11.193 10.5-21.5-5.666-8.927-13.5-11.427-23.5-7.5-2.215 2.42-4.215 4.253-6 5.5 1.064-8.578 5.73-14.411 14-17.5 20.057-2.274 29.224 6.559 27.5 26.5-2.29 7.117-6.79 12.117-13.5 15z"/><path style="opacity:.99" fill="#7565ef" d="M67.5 58.5c-2.688.524-4.188 2.19-4.5 5-6.5-7.833-13.667-15-21.5-21.5 1.655-1.444 2.322-3.278 2-5.5 16.72-13.616 35.387-16.782 56-9.5 9.3 4.63 17.467 10.796 24.5 18.5 1.187 1.544 1.52 3.211 1 5-9.621-8.265-20.788-11.099-33.5-8.5-9.788 2.964-17.788 8.464-24 16.5z"/><path style="opacity:.998" fill="#6d6aee" d="M77.5 70.5c.905 8.97 5.238 15.803 13 20.5-1.634.493-3.3.66-5 .5a92.764 92.764 0 0 1-17-1c-4.144-14.668-.81-27.169 10-37.5 2.069-1.874 4.402-2.874 7-3-6.123 5.804-8.79 12.637-8 20.5z"/><path style="opacity:.984" fill="#f1f0f9" d="M109.5 89.5c1.915-.284 3.581.049 5 1-.543.06-.876.393-1 1l5 1a111.43 111.43 0 0 1 14-1c1.528.017 2.028.684 1.5 2a11.115 11.115 0 0 1-4.5 3c-8.837-.786-17.503-.786-26 0-.979 3.125-1.313 6.458-1 10-1.348 3.327-2.015 6.661-2 10-15.326.182-26.326-6.485-33-20v-3c1.983-.343 3.317.323 4 2-.237 1.291.096 2.291 1 3 5.652 7.992 13.319 12.659 23 14 1.068.934 2.401 1.268 4 1v-18h-12c-4.817-.826-9.817-1.326-15-1.5a153.509 153.509 0 0 1 13-2.5c1.7.16 3.366-.007 5-.5-7.762-4.697-12.095-11.53-13-20.5a32.477 32.477 0 0 1 2.5-9c.21 1.558.71 2.891 1.5 4 1.785-1.247 3.785-3.08 6-5.5 10-3.927 17.834-1.427 23.5 7.5 2.58 10.307-.92 17.473-10.5 21.5 2.982.498 5.982.665 9 .5z"/><path style="opacity:.997" fill="#806aed" d="M132.5 91.5a111.43 111.43 0 0 0-14 1l-5-1c.124-.607.457-.94 1-1 12.019-8.036 16.185-19.036 12.5-33 7.775 10.302 9.608 21.636 5.5 34z"/><path style="opacity:.99" fill="#6067f1" d="M43.5 36.5c.322 2.222-.345 4.056-2 5.5 7.833 6.5 15 13.667 21.5 21.5.312-2.81 1.812-4.476 4.5-5-3.647 8.985-4.814 18.318-3.5 28 .572 3.663 1.738 6.996 3.5 10 6.674 13.515 17.674 20.182 33 20 5.138.066 10.138-.6 15-2 1.69.356 2.69 1.356 3 3-6.462 7.234-14.462 11.9-24 14-4.733.277-9.4-.057-14-1a213.933 213.933 0 0 1-22-20.5 8.43 8.43 0 0 0-4-.5c.262-1.478-.071-2.811-1-4-3.158-1.74-5.492-4.24-7-7.5-4.673-.934-5.006-2.434-1-4.5a311.995 311.995 0 0 1-21-21c.548-15.098 6.881-27.098 19-36z"/><path style="opacity:1" fill="#7b6cee" d="M96.5 65.5c9.613-.25 12.613 3.916 9 12.5-6.48 3.288-10.147 1.454-11-5.5-.059-2.61.608-4.943 2-7z"/><path style="opacity:1" fill="#796eeb" d="M97.5 82.5c.11.617.444 1.117 1 1.5a18.436 18.436 0 0 1-6 .5c-3.232-.272-5.232-1.938-6-5v-12c1.805-3.987 4.805-5.487 9-4.5-6.364 4.34-7.53 9.84-3.5 16.5 1.488 1.66 3.321 2.66 5.5 3z"/><path style="opacity:1" fill="#9992eb" d="M86.5 67.5v12c-1.472-1.618-2.139-3.618-2-6-.139-2.382.528-4.382 2-6z"/><path style="opacity:.995" fill="#576af1" d="M24.5 72.5a311.995 311.995 0 0 0 21 21c-4.006 2.066-3.673 3.566 1 4.5 1.508 3.26 3.842 5.76 7 7.5.929 1.189 1.262 2.522 1 4a8.43 8.43 0 0 1 4 .5 213.933 213.933 0 0 0 22 20.5c4.6.943 9.267 1.277 14 1-31.102 7.68-53.602-2.987-67.5-32-3.292-8.937-4.125-17.937-2.5-27z"/><path style="opacity:.986" fill="#7264f0" d="M137.5 63.5c.722.417 1.222 1.084 1.5 2a916.674 916.674 0 0 1 2 19 70.607 70.607 0 0 1 9.5 10.5 52.56 52.56 0 0 0 7 1.5c-2.162 14.33-8.496 26.33-19 36-1.208-2.544-3.208-3.878-6-4 .262-1.478-.071-2.811-1-4-2.743-1.739-4.743-4.073-6-7 11.26-16.29 15.26-34.29 12-54z"/><path style="opacity:1" fill="#beb9ef" d="M97.5 82.5a8.434 8.434 0 0 1 4 .5c1.333.667 1.333 1.333 0 2-3.197.805-6.197.638-9-.5a18.436 18.436 0 0 0 6-.5c-.556-.383-.89-.883-1-1.5z"/><path style="opacity:.976" fill="#4c6af1" d="M19.5 75.5a76.83 76.83 0 0 0 1.5 17c9.488 31.306 30.654 46.639 63.5 46-4.202.793-8.535 1.626-13 2.5a66.305 66.305 0 0 1 8 8c2.474.113 4.474 1.113 6 3l-2 2c3.71.28 6.71 1.78 9 4.5v1h-27c-33.985-7.987-55.985-28.654-66-62v-20h7v3l6 1c-.408 3.1.759 5.433 3.5 7 .903-4.476 2.07-8.81 3.5-13z"/><path style="opacity:1" fill="#b4b1f4" d="M71.5 95.5h28v18c-1.599.268-2.932-.066-4-1h3v-16c-7.008-.166-14.008 0-21 .5-1.882.198-3.548.698-5 1.5-.904-.709-1.237-1.709-1-3z"/><path style="opacity:.961" fill="#6d67f0" d="M129.5 96.5c-4.438 7.894-11.105 12.894-20 15-1.765-.961-3.765-1.295-6-1v-14c8.497-.786 17.163-.786 26 0z"/><path style="opacity:1" fill="#6968ef" d="M95.5 112.5c-9.681-1.341-17.348-6.008-23-14 1.452-.802 3.118-1.302 5-1.5 6.992-.5 13.992-.666 21-.5v16h-3z"/><path style="opacity:.963" fill="#7e78e7" d="M118.5 117.5c-.31-1.644-1.31-2.644-3-3 3.458-2.721 7.125-4.888 11-6.5-1.78 3.944-4.446 7.11-8 9.5z"/><path style="opacity:1" fill="#857fea" d="M103.5 96.5v14c2.235-.295 4.235.039 6 1-5.681 3.626-8.014 1.959-7-5-.313-3.542.021-6.875 1-10z"/><path style="opacity:.982" fill="#5c67f2" d="M125.5 117.5c1.257 2.927 3.257 5.261 6 7 .929 1.189 1.262 2.522 1 4 2.792.122 4.792 1.456 6 4-3.815 5.98-8.815 10.814-15 14.5-9.526 6.1-19.86 9.934-31 11.5-2.29-2.72-5.29-4.22-9-4.5l2-2c-1.526-1.887-3.526-2.887-6-3a66.305 66.305 0 0 0-8-8c4.465-.874 8.798-1.707 13-2.5 16.286-1.976 29.953-8.976 41-21z"/></svg>
